images/icones/icone-usuario.svg

<svg width="24" height="25" viewBox="0 0 24 25" fill="none" xmlns="http://www.w3.org/2000/svg">
<path d="M4.26 19.4806C5.52 18.6006 6.77 17.9256 8.01 17.4556C9.25 16.9856 10.58 16.7506 12 16.7506C13.42 16.7506 14.755 16.9856 16.005 17.4556C17.255 17.9256 18.51 18.6006 19.77 19.4806C20.65 18.4006 21.275 17.3106 21.645 16.2106C22.015 15.1106 22.2 13.9506 22.2 12.7306C22.2 9.83059 21.225 7.40559 19.275 5.45559C17.325 3.50559 14.9 2.53059 12 2.53059C9.1 2.53059 6.675 3.50559 4.725 5.45559C2.775 7.40559 1.8 9.83059 1.8 12.7306C1.8 13.9506 1.99 15.1106 2.37 16.2106C2.75 17.3106 3.38 18.4006 4.26 19.4806ZM12 13.6306C10.84 13.6306 9.865 13.2356 9.075 12.4456C8.285 11.6556 7.89 10.6806 7.89 9.52059C7.89 8.36059 8.285 7.38559 9.075 6.59559C9.865 5.80559 10.84 5.41059 12 5.41059C13.16 5.41059 14.135 5.80559 14.925 6.59559C15.715 7.38559 16.11 8.36059 16.11 9.52059C16.11 10.6806 15.715 11.6556 14.925 12.4456C14.135 13.2356 13.16 13.6306 12 13.6306ZM12 24.7306C10.36 24.7306 8.81 24.4156 7.35 23.7856C5.89 23.1556 4.615 22.2956 3.525 21.2056C2.435 20.1156 1.575 18.8406 0.945 17.3806C0.315 15.9206 0 14.3706 0 12.7306C0 11.0706 0.315 9.51559 0.945 8.06559C1.575 6.61559 2.435 5.34559 3.525 4.25559C4.615 3.16559 5.89 2.30559 7.35 1.67559C8.81 1.04559 10.36 0.730591 12 0.730591C13.66 0.730591 15.215 1.04559 16.665 1.67559C18.115 2.30559 19.385 3.16559 20.475 4.25559C21.565 5.34559 22.425 6.61559 23.055 8.06559C23.685 9.51559 24 11.0706 24 12.7306C24 14.3706 23.685 15.9206 23.055 17.3806C22.425 18.8406 21.565 20.1156 20.475 21.2056C19.385 22.2956 18.115 23.1556 16.665 23.7856C15.215 24.4156 13.66 24.7306 12 24.7306ZM12 22.9306C13.1 22.9306 14.175 22.7706 15.225 22.4506C16.275 22.1306 17.31 21.5706 18.33 20.7706C17.31 20.0506 16.27 19.5006 15.21 19.1206C14.15 18.7406 13.08 18.5506 12 18.5506C10.92 18.5506 9.85 18.7406 8.79 19.1206C7.73 19.5006 6.69 20.0506 5.67 20.7706C6.69 21.5706 7.725 22.1306 8.775 22.4506C9.825 22.7706 10.9 22.9306 12 22.9306ZM12 11.8306C12.68 11.8306 13.235 11.6156 13.665 11.1856C14.095 10.7556 14.31 10.2006 14.31 9.52059C14.31 8.84059 14.095 8.28559 13.665 7.85559C13.235 7.42559 12.68 7.21059 12 7.21059C11.32 7.21059 10.765 7.42559 10.335 7.85559C9.905 8.28559 9.69 8.84059 9.69 9.52059C9.69 10.2006 9.905 10.7556 10.335 11.1856C10.765 11.6156 11.32 11.8306 12 11.8306Z" fill="#1B1517"/>
</svg>

<svg width="24" height="25" fill="none" xmlns="http://www.w3.org/2000/svg"><path d="M4.26 19.48c1.26-.88 2.51-1.554 3.75-2.024 1.24-.47 2.57-.705 3.99-.705 1.42 0 2.755.235 4.005.705S18.51 18.6 19.77 19.48c.88-1.08 1.505-2.17 1.875-3.27.37-1.1.555-2.26.555-3.48 0-2.9-.975-5.325-2.925-7.275C17.325 3.506 14.9 2.53 12 2.53c-2.9 0-5.325.975-7.275 2.925C2.775 7.406 1.8 9.83 1.8 12.73c0 1.22.19 2.38.57 3.48.38 1.1 1.01 2.19 1.89 3.27ZM12 13.63c-1.16 0-2.135-.394-2.925-1.184-.79-.79-1.185-1.765-1.185-2.925s.395-2.135 1.185-2.925S10.84 5.41 12 5.41s2.135.395 2.925 1.185S16.11 8.36 16.11 9.52s-.395 2.135-1.185 2.925S13.16 13.63 12 13.63Zm0 11.1c-1.64 0-3.19-.314-4.65-.944a12.172 12.172 0 0 1-3.825-2.58 12.172 12.172 0 0 1-2.58-3.825C.315 15.92 0 14.37 0 12.73c0-1.66.315-3.215.945-4.665a12.22 12.22 0 0 1 2.58-3.81 12.172 12.172 0 0 1 3.825-2.58C8.81 1.046 10.36.73 12 .73c1.66 0 3.215.315 4.665.945 1.45.63 2.72 1.49 3.81 2.58a12.22 12.22 0 0 1 2.58 3.81c.63 1.45.945 3.005.945 4.665 0 1.64-.315 3.19-.945 4.65a12.172 12.172 0 0 1-2.58 3.825 12.22 12.22 0 0 1-3.81 2.58c-1.45.63-3.005.945-4.665.945Zm0-1.8c1.1 0 2.175-.16 3.225-.48 1.05-.32 2.085-.88 3.105-1.68-1.02-.72-2.06-1.27-3.12-1.65a9.452 9.452 0 0 0-3.21-.57c-1.08 0-2.15.19-3.21.57-1.06.38-2.1.93-3.12 1.65 1.02.8 2.055 1.36 3.105 1.68 1.05.32 2.125.48 3.225.48Zm0-11.1c.68 0 1.235-.214 1.665-.644.43-.43.645-.985.645-1.665s-.215-1.235-.645-1.665c-.43-.43-.985-.645-1.665-.645s-1.235.215-1.665.645c-.43.43-.645.985-.645 1.665s.215 1.235.645 1.665c.43.43.985.645 1.665.645Z" fill="#1B1517"/></svg>
